X: 3278
M: 6/8
L: 1/8
K: G
|:\
vG2vG uG2uA | B2c d2B | d2e f2g | a2g fed |\
b2a g2f | g2f e2d | e2f g2e | d2c B2A |\
|:\
e2f g2e | d2c B2A | G2g gaf |[1 ged cBA :|[2 g3- g2z |]


